X: 107
T: Missa Pascale / Agnus Dei
N: Derived from Rue1023e-Missa_Pascale-Agnus.krn
C: Pierre de la Rue
%%abc-version 2.0
%%abcx-abcm2ps-target-version 5.9.1 (29 Sep 2008)
%%abc-creator hum2abc beta
%%abcx-conversion-date 2019/02/17 08:01:14
%%abc-edited-by Jesse Rodin
%%abc-edited-by Chris Gage 04-23-2013
%%abcx-initial-encoding-date 2013/08/01/
%%humdrum-veritas 1279875217
%%humdrum-veritas-data 3908491204
%%linebreak <none>
%%barnumbers 0
L: 1/4
M: 3/1
Q: 1/2=120
V: 1 clef=treble
V: 2 clef=treble-8
V: 3 clef=treble-8
V: 4 clef=treble-8
V: 5 clef=bass
K: C
[V:1] G8B4- | 
[V:2] z12 | 
[V:3] z12 | 
[V:4] G12 | 
[V:5] z12 | 
[V:1] B4d8 | 
[V:2] z12 | 
[V:3] z12 | 
[V:4] B12 | 
[V:5] z12 | 
[V:1] A8z2A2 | 
[V:2] A12 | 
[V:3] z12 | 
[V:4] d12 | 
[V:5] D,8F,4- | 
[V:1] A2A4GFE2A2 | 
[V:2] c12 | 
[V:3] z12 | 
[V:4] A8c4 | 
[V:5] F,4A,8 | 
[V:1] G2E2G8 | 
[V:2] e8e4 | 
[V:3] G12- | 
[V:4] B12 | 
[V:5] E,12 | 
[V:1] G2G4FED2ED | 
[V:2] B2e2d2c3BB2 | 
[V:3] G12 | 
[V:4] z12 | 
[V:5] z4z4G,4 | 
[V:1] E4z2E2F3G | 
[V:2] c4e4d4 | 
[V:3] c8A4 | 
[V:4] G4G2A3GF2 | 
[V:5] C,8D,4 | 
[V:1] A2B2c8 | 
[V:2] c12 | 
[V:3] A8A4 | 
[V:4] E4E2F3GA2 | 
[V:5] A,,8F,,4 | 
[V:1] B4B2G3AB2 | 
[V:2] z4z4g4 | 
[V:3] G3AB2c4B2 | 
[V:4] D2G4FED4 | 
[V:5] G,,4G,,4G,,4 | 
[V:1] A2c2B2G4^F2 | 
[V:2] e2f2d2d3cBA | 
[V:3] c3BG2B2A4 | 
[V:4] C4z4z4 | 
[V:5] A,,2F,,2G,,4D,4 | 
[V:1] G4z4z4 | 
[V:2] B4e2f2d2e2- | 
[V:3] G4z4z4 | 
[V:4] z4z4z2G2 | 
[V:5] G,,2G,2A,2F,2G,3E, | 
[V:1] z4z4z2D2 | 
[V:2] ecd2B2c3AB2 | 
[V:3] z12 | 
[V:4] A2F2G3EF2D2 | 
[V:5] F,2D,2E,3C,D,2B,,2 | 
[V:1] E2C2D3B,C2A,2 | 
[V:2] G2A3GG4^F2 | 
[V:3] z12 | 
[V:4] G2E3DD4C2 | 
[V:5] C,3A,,B,,2G,,2A,,4 | 
[V:1] B,2B2B2B2G2B2- | 
[V:2] G4z2d2d2d2- | 
[V:3] B12- | 
[V:4] D8z2G2 | 
[V:5] G,,12- | 
[V:1] B2d4cBA2BA | 
[V:2] dGG2d2e2f4 | 
[V:3] B8c4 | 
[V:4] G2G2D2G2A4 | 
[V:5] G,,8z4 | 
[V:1] B4z2B2c4 | 
[V:2] g2fed2g4f2 | 
[V:3] d8e2c2 | 
[V:4] G2B3GB2A4 | 
[V:5] z12 | 
[V:1] B2d3cABc3B | 
[V:2] g2fed4c4 | 
[V:3] d4z2d2e3c | 
[V:4] G8z2A2 | 
[V:5] z12 | 
[V:1] AGB3AA4^G2 | 
[V:2] z12 | 
[V:3] d2B2c2A2B4 | 
[V:4] F2z3AF2E4 | 
[V:5] z12 | 
[V:1] A4z4z4 | 
[V:2] f8f4 | 
[V:3] A4B2A4d2- | 
[V:4] F8F4 | 
[V:5] D,8D,4 | 
[V:1] z12 | 
[V:2] f4g2e2f4 | 
[V:3] dcBAG2c4B2 | 
[V:4] D4E2G4F2 | 
[V:5] F,4E,2C,2D,4 | 
[V:1] z12 | 
[V:2] e6c2d2e2 | 
[V:3] c8z4 | 
[V:4] G2c3BA2G4 | 
[V:5] C,3D,E,C,F,4E,2 | 
[V:1] z4z4G4 | 
[V:2] A2cdecf4e2 | 
[V:3] c8c4 | 
[V:4] A2A4GFG4 | 
[V:5] F,4C,8 | 
[V:1] A8G4 | 
[V:2] f8z4 | 
[V:3] c8c4 | 
[V:4] F2F4EDE4 | 
[V:5] F,,3G,,A,,2F,,2C,4 | 
[V:1] A2c2c3BA2G2 | 
[V:2] z2f2f2f2e4- | 
[V:3] c4z2c2c3B | 
[V:4] F8z2C2- | 
[V:5] F,,3G,,A,,2F,,2C,4 | 
[V:1] c8c4 | 
[V:2] e4e4c4 | 
[V:3] A2G2cBAGA4 | 
[V:4] CDEFG2E2F4 | 
[V:5] C,8F,,4 | 
[V:1] B8G4 | 
[V:2] z2g2g2g2e2c2 | 
[V:3] G8z2G2 | 
[V:4] D6E2E4- | 
[V:5] G,,6G,,2C,4 | 
[V:1] A2G2c2c3BB2 | 
[V:2] e6f2d4 | 
[V:3] c8G4 | 
[V:4] E4C4z4 | 
[V:5] C,4A,,2F,,2G,,4 | 
[V:1] c8z4 | 
[V:2] c8z4 | 
[V:3] A8c2d2- | 
[V:4] z4F4E2D2 | 
[V:5] z4F,,4A,,2B,,2 | 
[V:1] z4z4d4 | 
[V:2] z12 | 
[V:3] dcBAB2A4^G2 | 
[V:4] G2F3EE4D2 | 
[V:5] C,2D,3C,B,,A,,B,,4 | 
[V:1] c3BB2A4GF | 
[V:2] e3dd2c4B2 | 
[V:3] A4z4z4 | 
[V:4] E3FG2C2D4 | 
[V:5] A,,4z4z4 | 
[V:1] E4z4z2G2 | 
[V:2] c4z4z2G2 | 
[V:3] z2G3AB2c4 | 
[V:4] z12 | 
[V:5] C,3D,E,F,D,2C,4 | 
[V:1] F2EDE4z4 | 
[V:2] A2B2c4z4 | 
[V:3] z4G3ABcdB | 
[V:4] z4z2G2A2F2 | 
[V:5] z4C,2E,2D,4 | 
[V:1] z2E2F2G2A2GF | 
[V:2] z2G2A2B2c2d2 | 
[V:3] c4z4z4 | 
[V:4] G4z4z4 | 
[V:5] C,4z4z4 | 
[V:1] E2G4G2A2c2- | 
[V:2] e8z4 | 
[V:3] c8A4 | 
[V:4] G8F4 | 
[V:5] C,8F,,4 | 
[V:1] cBG2A2B2c4 | 
[V:2] e3dc2B2A4 | 
[V:3] G3EF2G4^F2 | 
[V:4] E2C4D4C2 | 
[V:5] C,3B,,A,,2G,,2A,,4 | 
[V:1] BGBcdBc3BAG | 
[V:2] B4z2e4e2 | 
[V:3] G6A3GE2 | 
[V:4] D4D2E4E2 | 
[V:5] G,,3A,,B,,2A,,3B,,C,2 | 
[V:1] FEA4G3^FF2 | 
[V:2] A4d4d4 | 
[V:3] F3GA2B2A4 | 
[V:4] D4z4D4 | 
[V:5] D,3E,F,D,G,2D,4 | 
[V:1] G12 ||  
[V:2] B12 ||  
[V:3] G12 ||  
[V:4] D12 ||  
[V:5] G,,12 ||  
[V:1]  [K:C] [K:clef=treble][M:2/1]z8 | 
[V:2]  [K:C] [K:clef=treble-8][M:2/1]d4d2e2- | 
[V:3]  [K:C] [K:clef=treble-8][M:2/1]z8 | 
[V:4]  [K:C] [K:clef=treble-8][M:2/1]z8 | 
[V:5]  [K:C] [K:clef=bass][M:2/1]z8 | 
[V:1] z8 | 
[V:2] e2dcB4 | 
[V:3] z8 | 
[V:4] z4G4 | 
[V:5] z8 | 
[V:1] z8 | 
[V:2] B2c4BA | 
[V:3] z8 | 
[V:4] G2A4GF | 
[V:5] z8 | 
[V:1] G4G2A2- | 
[V:2] G4z4 | 
[V:3] z8 | 
[V:4] E4E2F2- | 
[V:5] z8 | 
[V:1] A2GFE4 | 
[V:2] z4G4 | 
[V:3] c8 | 
[V:4] F2EDC4- | 
[V:5] z8 | 
[V:1] z4E4 | 
[V:2] G2A4GF | 
[V:3] c8 | 
[V:4] C4z4 | 
[V:5] z4C,4 | 
[V:1] E2F4ED | 
[V:2] E2A3Bcd | 
[V:3] A8 | 
[V:4] z8 | 
[V:5] C,2D,4C,B,, | 
[V:1] C2G2G2A2- | 
[V:2] e4z2A2- | 
[V:3] c8- | 
[V:4] z8 | 
[V:5] A,,2E,2E,2F,2- | 
[V:1] A2GFE2F2 | 
[V:2] ABcde2c2 | 
[V:3] c8 | 
[V:4] z8 | 
[V:5] F,2E,D,C,4 | 
[V:1] G4G2B2- | 
[V:2] d8- | 
[V:3] B8 | 
[V:4] z4G4 | 
[V:5] G,,8- | 
[V:1] Bcd4G2- | 
[V:2] d8 | 
[V:3] G8- | 
[V:4] G3ABGBc | 
[V:5] G,,8- | 
[V:1] G2FED2G2 | 
[V:2] z4d4 | 
[V:3] G8 | 
[V:4] d2c4B2 | 
[V:5] G,,8 | 
[V:1] G3ABGBc | 
[V:2] e3fgeg2- | 
[V:3] z8 | 
[V:4] c4G3A | 
[V:5] z8 | 
[V:1] d2c4B2 | 
[V:2] g2fed4 | 
[V:3] z8 | 
[V:4] B2c2G4 | 
[V:5] z4G,4 | 
[V:1] c4G3A | 
[V:2] c8 | 
[V:3] z8 | 
[V:4] G8 | 
[V:5] C,3D,E,C,E,F, | 
[V:1] B2c2G4 | 
[V:2] z4c4 | 
[V:3] z8 | 
[V:4] z4G4 | 
[V:5] G,2F,4E,2 | 
[V:1] z8 | 
[V:2] c3decef | 
[V:3] c8 | 
[V:4] F2A2G2c2- | 
[V:5] F,4C,3D, | 
[V:1] z4c4 | 
[V:2] g2f4e2 | 
[V:3] c8 | 
[V:4] cBA2G4 | 
[V:5] E,2F,2C,4 | 
[V:1] c4c4 | 
[V:2] f4z4 | 
[V:3] A8 | 
[V:4] F4z4 | 
[V:5] z4C,4 | 
[V:1] c4c4 | 
[V:2] e4e4 | 
[V:3] c8- | 
[V:4] G4G4 | 
[V:5] C,4C,4 | 
[V:1] G4G2G2- | 
[V:2] e8 | 
[V:3] c8 | 
[V:4] G8 | 
[V:5] C,4C,4 | 
[V:1] G2FED4 | 
[V:2] d2g4fe | 
[V:3] B8 | 
[V:4] G4G2G2- | 
[V:5] G,,4G,,4 | 
[V:1] z4G4 | 
[V:2] d4d2e2- | 
[V:3] G8- | 
[V:4] G2FED2C2 | 
[V:5] G,,3A,,B,,2C,2- | 
[V:1] G4G4 | 
[V:2] e2d2e2d2 | 
[V:3] G8 | 
[V:4] D4z2D2 | 
[V:5] C,2B,,2C,2G,,2 | 
[V:1] E3FG2A2- | 
[V:2] c3de2f2 | 
[V:3] z8 | 
[V:4] E2A2G2F2 | 
[V:5] C,4C,2F,2- | 
[V:1] A2G2A2c2 | 
[V:2] c4z2g2 | 
[V:3] z8 | 
[V:4] A2c4c2 | 
[V:5] F,2E,2F,2C,2 | 
[V:1] B2d3cB2- | 
[V:2] g6fe | 
[V:3] z8 | 
[V:4] d8 | 
[V:5] G,4G,4 | 
[V:1] B2A3^GG2 | 
[V:2] e4e4 | 
[V:3] z8 | 
[V:4] c3AB4 | 
[V:5] A,4E,4 | 
[V:1] A8- | 
[V:2] f2e2c2f2- | 
[V:3] c8 | 
[V:4] A8- | 
[V:5] A,,8- | 
[V:1] A8 | 
[V:2] f2edece2 | 
[V:3] c8 | 
[V:4] A8 | 
[V:5] A,,8 | 
[V:1] z8 | 
[V:2] fedcd4 | 
[V:3] A8 | 
[V:4] F8 | 
[V:5] D,8 | 
[V:1] z4A4 | 
[V:2] e8 | 
[V:3] c8- | 
[V:4] E8 | 
[V:5] A,,8- | 
[V:1] A4E4 | 
[V:2] e4c4 | 
[V:3] c8 | 
[V:4] E4A4 | 
[V:5] A,,8 | 
[V:1] G4E2G2- | 
[V:2] d2e4dc | 
[V:3] B8 | 
[V:4] G8 | 
[V:5] z8 | 
[V:1] G2FED2G2 | 
[V:2] B2G2B3c | 
[V:3] G8- | 
[V:4] z8 | 
[V:5] z8 | 
[V:1] B3cd2D2 | 
[V:2] d8 | 
[V:3] G8 | 
[V:4] z8 | 
[V:5] z2G,,2B,,3C, | 
[V:1] F3GA2B2 | 
[V:2] d8 | 
[V:3] z2D2F3G | 
[V:4] z4z2D2 | 
[V:5] D,8 | 
[V:1] c2d2A2d2- | 
[V:2] z2d2e2d2- | 
[V:3] A2B2c2d2 | 
[V:4] F3GA2D2 | 
[V:5] z8 | 
[V:1] d2B2c4 | 
[V:2] d2g3^f^f2 | 
[V:3] G4A4 | 
[V:4] d2d4c2 | 
[V:5] z8 | 
[V:1] B8 | 
[V:2] g4z2G2 | 
[V:3] G8 | 
[V:4] d8- | 
[V:5] z2G,,2B,,3C, | 
[V:1] z4z2D2 | 
[V:2] B3cd2cB | 
[V:3] z2D2F3G | 
[V:4] d8 | 
[V:5] D,8 | 
[V:1] F3GA2_B2 | 
[V:2] A2d3ef2- | 
[V:3] A2_B2A2d2- | 
[V:4] z2D2F3G | 
[V:5] D,8 | 
[V:1] A2d4d2- | 
[V:2] fedcd4- | 
[V:3] dc_BA_B2AG | 
[V:4] A2D2G2FE | 
[V:5] z4z2G,,2 | 
[V:1] d2cBA3G | 
[V:2] d4d4 | 
[V:3] F2G4^F2 | 
[V:4] D8 | 
[V:5] B,,3C,D,4 | 
[V:1] B2G2B3c | 
[V:2] d8- | 
[V:3] G8 | 
[V:4] z4z2D2- | 
[V:5] G,,4z2G,,2 | 
[V:1] d2cBA2d2- | 
[V:2] d8- | 
[V:3] z2D2F3G | 
[V:4] D2F3GA2 | 
[V:5] B,,3C,D,4- | 
[V:1] dcB3AG2- | 
[V:2] d8 | 
[V:3] A2B3cd2- | 
[V:4] D4z2D2 | 
[V:5] D,2G,,2B,,3C, | 
[V:1] G2^FEF4 | 
[V:2] z4d4 | 
[V:3] d2cBA4 | 
[V:4] F3GA4 | 
[V:5] D,4D,4 | 
[V:1] G8- | 
[V:2] d2e3dc2- | 
[V:3] G8- | 
[V:4] B2G3FED | 
[V:5] G,,2C,2E,3F, | 
[V:1] G8 | 
[V:2] c2B2c4 | 
[V:3] G8- | 
[V:4] C2D2E4 | 
[V:5] G,2G,,2C,4 | 
[V:1] G8 |]  
[V:2] B8 |]  
[V:3] G8 |]  
[V:4] D8 |]  
[V:5] G,,8 |]  



% FRACTION = 0.875BUT SHOULD BE 0
